SharedPackages/Infrastructure/DesignResourcesKitIcons/Sources/DesignResourcesKitIcons/DesignSystemImages.xcassets/Color/24px/Favorite-Color-24.imageset/Favorite-Color-24.svg

<svg width="24" height="24" viewBox="0 0 24 24" fill="none" xmlns="http://www.w3.org/2000/svg">
<path d="M10.6511 3.44011C11.1984 2.31489 12.8017 2.31488 13.3489 3.44011L14.9844 6.80254C15.2011 7.24827 15.6241 7.55812 16.1145 7.63042L19.8071 8.17488C21.0306 8.35529 21.5224 9.85559 20.6431 10.7253L17.9434 13.3955C17.5961 13.7391 17.4378 14.2303 17.5192 14.712L18.1527 18.4599C18.3604 19.6882 17.0668 20.6197 15.9677 20.0333L12.7061 18.2934C12.2648 18.058 11.7353 18.058 11.294 18.2934L8.03238 20.0333C6.93323 20.6197 5.63971 19.6882 5.84734 18.4599L6.48083 14.712C6.56225 14.2303 6.40398 13.7391 6.05664 13.3955L3.35696 10.7253C2.47766 9.85559 2.96946 8.35529 4.19298 8.17488L7.88561 7.63042C8.37595 7.55812 8.79893 7.24827 9.01572 6.80255L10.6511 3.44011Z" fill="#FFC95C"/>
<path fill-rule="evenodd" clip-rule="evenodd" d="M10.0515 3.14844C10.842 1.52311 13.1579 1.52311 13.9484 3.14844L15.5838 6.51087C15.7042 6.7585 15.9392 6.93064 16.2116 6.9708L19.9042 7.51527C21.6716 7.77585 22.3819 9.94296 21.1118 11.1992L18.4122 13.8694C18.2192 14.0603 18.1313 14.3332 18.1765 14.6008L18.81 18.3487C19.1099 20.1229 17.2415 21.4684 15.6538 20.6214L12.3922 18.8815C12.147 18.7507 11.8529 18.7507 11.6077 18.8815L8.34607 20.6214C6.75842 21.4684 4.89 20.1229 5.1899 18.3487L5.8234 14.6008C5.86863 14.3332 5.78071 14.0603 5.58774 13.8694L2.88805 11.1992C1.61796 9.94296 2.32833 7.77585 4.09565 7.51527L7.78827 6.9708C8.06069 6.93064 8.29567 6.7585 8.41611 6.51087L10.0515 3.14844ZM12.7493 3.73162C12.4453 3.1065 11.5546 3.10649 11.2506 3.73162L9.61514 7.09405C9.302 7.73788 8.69104 8.18545 7.98276 8.28988L4.29014 8.83434C3.6104 8.93456 3.33718 9.76806 3.82568 10.2512L6.52536 12.9215C7.02708 13.4177 7.2557 14.1272 7.13808 14.823L6.50459 18.5709C6.38924 19.2533 7.10786 19.7708 7.7185 19.445L10.9801 17.7051C11.6175 17.3651 12.3824 17.3651 13.0197 17.7051L16.2814 19.445C16.892 19.7708 17.6107 19.2533 17.4953 18.5709L16.8618 14.823C16.7442 14.1272 16.9728 13.4177 17.4745 12.9215L20.1742 10.2512C20.6627 9.76806 20.3895 8.93456 19.7098 8.83434L16.0171 8.28988C15.3089 8.18545 14.6979 7.73787 14.3848 7.09405L12.7493 3.73162Z" fill="#B66A1F"/>
</svg>

<svg fill="none" viewBox="0 0 24 24" xmlns="http://www.w3.org/2000/svg">
  <path fill="#FFDE7A" d="M10.651 3.44c.547-1.125 2.15-1.125 2.698 0l1.635 3.363a1.5 1.5 0 0 0 1.13.827l3.693.545c1.224.18 1.715 1.68.836 2.55l-2.7 2.67a1.5 1.5 0 0 0-.424 1.317l.634 3.748c.207 1.228-1.086 2.16-2.185 1.573l-3.262-1.74a1.5 1.5 0 0 0-1.412 0l-3.262 1.74c-1.099.587-2.392-.345-2.185-1.573l.634-3.748a1.5 1.5 0 0 0-.424-1.316l-2.7-2.67c-.88-.87-.388-2.37.836-2.551l3.693-.545a1.5 1.5 0 0 0 1.13-.827L10.65 3.44Z"/>
  <path fill="#C18010" fill-rule="evenodd" d="M10.052 3.148c.79-1.625 3.106-1.625 3.896 0l1.636 3.363c.12.247.355.42.628.46l3.692.544c1.768.26 2.478 2.428 1.208 3.684l-2.7 2.67a.833.833 0 0 0-.235.732l.633 3.748c.3 1.774-1.569 3.12-3.156 2.272l-3.262-1.74a.833.833 0 0 0-.784 0l-3.262 1.74c-1.588.847-3.456-.498-3.156-2.272l.633-3.748a.833.833 0 0 0-.235-.732l-2.7-2.67c-1.27-1.256-.56-3.423 1.208-3.684l3.692-.544a.833.833 0 0 0 .628-.46l1.636-3.363Zm2.697.584a.833.833 0 0 0-1.498 0L9.615 7.094A2.167 2.167 0 0 1 7.983 8.29l-3.693.544a.833.833 0 0 0-.464 1.417l2.7 2.67c.501.497.73 1.206.612 1.902l-.633 3.748a.833.833 0 0 0 1.213.874l3.262-1.74a2.167 2.167 0 0 1 2.04 0l3.261 1.74a.833.833 0 0 0 1.214-.874l-.633-3.748a2.167 2.167 0 0 1 .613-1.902l2.7-2.67a.833.833 0 0 0-.465-1.417l-3.693-.544a2.167 2.167 0 0 1-1.632-1.196l-1.636-3.362Z" clip-rule="evenodd"/>
</svg>
